X:1
T:Hyfrydol, 87.87 D
T:Hyfrydol, 87.87 D
T:Rowland Huw Prichard, 1855
T:Public Domain Courtesy of the Cyber Hymnal™
C:Rowland Huw Prichard, 1855
Z:Public Domain
Z:Courtesy of the Cyber Hymnal™
%%score ( 1 2 ) ( 3 4 )
L:1/8
Q:1/4=140
M:3/4
K:F
V:1 treble 
V:2 treble 
V:3 bass 
V:4 bass 
V:1
 [CF]4 [EG]2 | F3- [FG] [FA]2 | B4 [FA]2 | ([EG]2 [DF]2) [EG]2 | c4 B2 | [FA]4 A2 | (G2 F2) [EG]2 | %7
 F6 [CF]4 [EG]2 | (F3 G) [FA]2 | [GB]4 [FA]2 | ([EG]2 [DF]2) [EG]2 | c4 B2 | [FA]4 A2 | %13
 (G2 F2) [EG]2 | F6 [Ec]4 [Ec]2 | (c2 B2) [FA]2 | B4 [DB]2 | ([EB]2 [FA]2) [CG]2 | [CA]4 [FA]2 | %19
 ([FA]2 [GB]2) [Ac]2 | ([Ac]2 [GB]2) [FA]2 | G6 | (c2 A2) [Ac]2 | (B2 G2) [GB]2 | %24
 ([FA]2 [CF]2) [FA]2 | (G[EA] BA) [CG]2 | c4 [_Ec]2 | ([Dd]2 [Fc]2) [FB]2 | [FA]4 [EG]2 | F6 |] %30
V:2
 x6 | F4 x2 | (F2 G2) x2 | x6 | (F2 C2) (EF) | x4 (FE) | D4 x2 | F6 x6 | F4 x2 | x6 | x6 | %11
 (F2 C2) (DE) | x4 (FE) | D4 x2 | F6 x6 | F4 x2 | (F2 E2) x2 | x6 | x6 | x6 | x6 | (F4 E2) | %22
 F4 x2 | G4 x2 | x6 | x2 F2 x2 | (C2 F2) x2 | x6 | x6 | F6 |] %30
V:3
 [F,A,]4 [C,C]2 | (A,3 B,) [F,C]2 | ([D,D]2 [E,C]2) [F,C]2 | ([C,C]2 [D,A,]2) [C,C]2 | %4
 [A,C]4 [G,C]2 | [F,C]4 [A,,C]2 | [B,,B,]2 [D,A,]2 [C,C]2 | [F,A,]6 [F,A,]4 [C,G,]2 | %8
 (A,3 B,) [F,C]2 | ([F,D]2 [E,C]2) [F,C]2 | ([C,C]2 [D,A,]2) [C,C]2 | [A,C]4 [G,C]2 | %12
 [F,C]4 [A,,C]2 | ([B,,B,]2 [D,A,]2) [C,C]2 | [F,A,]6 [A,C]4 [F,A,]2 | (F,2 G,2) [D,A,]2 | %16
 G,4 G,2 | ([C,G,]2 [D,C]2) [E,B,]2 | [F,A,]4 [E,C]2 | [D,D]4 [A,,C]2 | [G,,D]4 [B,,D]2 | [C,G,]6 | %22
 [A,C]4 [F,D]2 | D4 [E,C]2 | ([F,C]2 [E,A,]2) [D,=B,]2 | C2 [D,B,]2 [E,B,]2 | [F,A,]4 [A,,C]2 | %27
 ([B,,B,]2 [A,,C]2) [B,,D]2 | [C,C]4 [C,B,]2 | [F,,F,A,]6 |] %30
V:4
 x6 | F,4 x2 | x6 | x6 | x6 | x6 | x6 | x6 (F,,2 A,,2) x2 | F,4 x2 | x6 | x6 | x6 | x6 | x6 | x12 | %15
 D,4 x2 | G,4 G,2 | x6 | x6 | x6 | x6 | x6 | x6 | (F,2 E,D,) x2 | x6 | E,C, x4 | x6 | x6 | x6 | %29
 x6 |] %30

